images/main/delivery-form.svg

<svg width="14" height="14" viewBox="0 0 14 14" fill="none" xmlns="http://www.w3.org/2000/svg">
<path fill-rule="evenodd" clip-rule="evenodd" d="M7.00026 2.12508C4.30774 2.12508 2.12502 4.3078 2.12502 7.00032C2.12502 9.69284 4.30774 11.8756 7.00026 11.8756C9.69278 11.8756 11.8755 9.69284 11.8755 7.00032C11.8755 4.3078 9.69278 2.12508 7.00026 2.12508ZM0.791687 7.00032C0.791687 3.57142 3.57136 0.791748 7.00026 0.791748C10.4292 0.791748 13.2088 3.57142 13.2088 7.00032C13.2088 10.4292 10.4292 13.2089 7.00026 13.2089C3.57136 13.2089 0.791687 10.4292 0.791687 7.00032ZM7.00007 6.3334C7.36826 6.3334 7.66674 6.63188 7.66674 7.00007V9.21683C7.66674 9.58502 7.36826 9.8835 7.00007 9.8835C6.63188 9.8835 6.33341 9.58502 6.33341 9.21683V7.00007C6.33341 6.63188 6.63188 6.3334 7.00007 6.3334ZM7.00007 4.11665C6.63188 4.11665 6.33341 4.41513 6.33341 4.78332C6.33341 5.1515 6.63188 5.44998 7.00007 5.44998H7.0059C7.37409 5.44998 7.67257 5.1515 7.67257 4.78332C7.67257 4.41513 7.37409 4.11665 7.0059 4.11665H7.00007Z" fill="#2D3440"/>
</svg>

<svg width="14" height="14" fill="none" xmlns="http://www.w3.org/2000/svg"><path fill-rule="evenodd" clip-rule="evenodd" d="M7.0003 2.125c-2.6926 0-4.8753 2.1828-4.8753 4.8753 0 2.6925 2.1827 4.8753 4.8753 4.8753 2.6925 0 4.8752-2.1828 4.8752-4.8753 0-2.6925-2.1827-4.8752-4.8752-4.8752ZM.7917 7.0004c0-3.4289 2.7797-6.2086 6.2086-6.2086 3.4289 0 6.2085 2.7797 6.2085 6.2086 0 3.4289-2.7796 6.2086-6.2085 6.2086-3.429 0-6.2086-2.7797-6.2086-6.2086ZM7 6.3334a.6667.6667 0 0 1 .6666.6667v2.2167a.6667.6667 0 0 1-1.3333 0V7.0001a.6667.6667 0 0 1 .6667-.6667Zm0-2.2168A.6667.6667 0 0 0 7 5.45h.0058a.6667.6667 0 0 0 0-1.3334h-.0058Z" fill="#2D3440"/></svg>
